Numix/48/actions/edit-undo-archive.svg

<?xml version="1.0" encoding="UTF-8" standalone="no"?>
<svg
   xmlns:dc="http://purl.org/dc/elements/1.1/"
   xmlns:cc="http://creativecommons.org/ns#"
   xmlns:rdf="http://www.w3.org/1999/02/22-rdf-syntax-ns#"
   xmlns:svg="http://www.w3.org/2000/svg"
   xmlns="http://www.w3.org/2000/svg"
   xmlns:sodipodi="http://sodipodi.sourceforge.net/DTD/sodipodi-0.dtd"
   xmlns:inkscape="http://www.inkscape.org/namespaces/inkscape"
   width="48"
   height="48"
   viewBox="0 0 48 48"
   id="svg2"
   version="1.1"
   inkscape:version="0.91 r"
   sodipodi:docname="edit-undo-archive.svg">
  <metadata
     id="metadata16">
    <rdf:RDF>
      <cc:Work
         rdf:about="">
        <dc:format>image/svg+xml</dc:format>
        <dc:type
           rdf:resource="http://purl.org/dc/dcmitype/StillImage" />
        <dc:title />
      </cc:Work>
    </rdf:RDF>
  </metadata>
  <defs
     id="defs14" />
  <sodipodi:namedview
     pagecolor="#ffffff"
     bordercolor="#666666"
     borderopacity="1"
     objecttolerance="10"
     gridtolerance="10"
     guidetolerance="10"
     inkscape:pageopacity="0"
     inkscape:pageshadow="2"
     inkscape:window-width="1920"
     inkscape:window-height="1056"
     id="namedview12"
     showgrid="true"
     inkscape:zoom="9.8333333"
     inkscape:cx="6.4380245"
     inkscape:cy="5.2542368"
     inkscape:window-x="0"
     inkscape:window-y="24"
     inkscape:window-maximized="1"
     inkscape:current-layer="svg2">
    <inkscape:grid
       type="xygrid"
       id="grid4147" />
  </sodipodi:namedview>
  <path
     style="fill:#c19553"
     d="M 6.289062,4 C 5.144531,4 4,5.144531 4,6.289062 L 4,41.777344 C 4,42.855469 5.144531,44 6.222656,44 l 35.554688,0 C 42.855469,44 44,42.855469 44,41.777344 L 44,6.222656 C 44,5.144531 42.855469,4 41.777344,4 Z"
     id="path4"
     inkscape:connector-curvature="0" />
  <path
     style="fill:#ffffff;fill-opacity:0.19599998"
     d="M 6.289062,4 C 5.144531,4 4,5.144531 4,6.289062 L 4,20 c 4.441406,0 35.558594,0 40,0 L 44,6.222656 C 44,5.144531 42.855469,4 41.777344,4 Z"
     id="path6"
     inkscape:connector-curvature="0" />
  <path
     style="fill:#ffffff"
     d="m 24,8 -4,0 0,-4 4,0 0,8 -4,0 0,4 4,0 0,8.03125 L 20,24 l 0,8 8,0 0,-8 -4,0.03125 L 24,20 l 4,0 0,-4 -4,0 0,-4 4,0 0,-4 z"
     id="path8"
     inkscape:connector-curvature="0" />
  <path
     id="path4138"
     d="M 39.291274,47.919931 C 40.710258,47.324986 41.951438,46.64114 43.004556,45.871814 53.351134,37.747733 46.288697,25.633412 34,25.633412 l 0,-7.002576 -14,10.503865 14,12.254507 0,-7.002576 c 10.538054,1.767741 10.577404,3.361101 5.308377,12.237412 0,0 -1.750644,1.76774 0,1.295887 z"
     style="fill:#cb4b16"
     inkscape:connector-curvature="0"
     sodipodi:nodetypes="cccccccccc" />
</svg>

<svg xmlns="http://www.w3.org/2000/svg" viewBox="0 0 48 48">
 <path d="m 6.289 4 c -1.145 0 -2.289 1.145 -2.289 2.289 l 0 35.488 c 0 1.078 1.145 2.223 2.223 2.223 l 35.555 0 c 1.078 0 2.223 -1.145 2.223 -2.223 l 0 -35.555 c 0 -1.078 -1.145 -2.223 -2.223 -2.223" style="fill:#c19553"/>
 <path d="m 6.289 4 c -1.145 0 -2.289 1.145 -2.289 2.289 l 0 13.711 c 4.441 0 35.559 0 40 0 l 0 -13.777 c 0 -1.078 -1.145 -2.223 -2.223 -2.223" style="fill:#fff;fill-opacity:0.196"/>
 <path d="m 24,8 -4,0 0,-4 4,0 0,8 -4,0 0,4 4,0 0,8.03125 L 20,24 l 0,8 8,0 0,-8 -4,0.03125 L 24,20 l 4,0 0,-4 -4,0 0,-4 4,0 0,-4 z" style="fill:#fff"/>
 <path d="m 39.29 47.92 c 1.419 -0.595 2.66 -1.279 3.713 -2.048 10.347 -8.124 3.284 -20.238 -9 -20.238 l 0 -7 -14 10.504 14 12.255 0 -7 c 10.538 1.768 10.577 3.361 5.308 12.237 0 0 -1.751 1.768 0 1.296 z" style="fill:#cb4b16"/>
</svg>
